svgs/dice.svg

<?xml version="1.0" encoding="UTF-8" standalone="no"?>
<svg
   xmlns:dc="http://purl.org/dc/elements/1.1/"
   xmlns:cc="http://creativecommons.org/ns#"
   xmlns:rdf="http://www.w3.org/1999/02/22-rdf-syntax-ns#"
   xmlns:svg="http://www.w3.org/2000/svg"
   xmlns="http://www.w3.org/2000/svg"
   xml:space="preserve"
   id="SVGRoot"
   version="1.1"
   viewBox="0 0 192 192"
   height="192"
   width="192"><metadata
     id="metadata8"><rdf:RDF><cc:Work
         rdf:about=""><dc:format>image/svg+xml</dc:format><dc:type
           rdf:resource="http://purl.org/dc/dcmitype/StillImage" /><dc:title></dc:title></cc:Work></rdf:RDF></metadata><defs
     id="defs18865" /><path
     d="m 127.10406,109.74311 -5.95566,51.72597 45.95535,-41.18915 z m -13.92353,1.27868 -6.53555,56.97292 -58.962009,-34.80889 z M 130.37185,96.24577 147.9894,47.229163 171.00591,106.90156 Z M 57.628371,48.934087 41.005347,121.5355 108.77612,98.519002 Z m 10.778682,-7.844995 49.962967,48.569799 19.22614,-53.289749 z"
     style="display:inline;opacity:1;fill:none;stroke:#000000;stroke-width:10;stroke-linecap:butt;stroke-linejoin:round;stroke-miterlimit:4;stroke-dasharray:none;stroke-opacity:1"
     id="path852" /><path
     style="display:inline;opacity:1;fill:none;fill-opacity:1;stroke:#000000;stroke-width:6;stroke-linecap:butt;stroke-linejoin:round;stroke-miterlimit:4;stroke-dasharray:none;stroke-opacity:1"
     d="M 71.695995,29.321074 82.933548,22.208698 109.18357,26.64017 Z"
     id="path856" /><path
     style="display:inline;opacity:1;fill:none;fill-opacity:1;stroke:#000000;stroke-width:6;stroke-linecap:butt;stroke-linejoin:round;stroke-miterlimit:4;stroke-dasharray:none;stroke-opacity:1"
     d="m 44.242225,144.20484 5.849302,10.63425 27.578863,9.17103 z"
     id="path858" /><path
     id="path884"
     d="M 20.999932,78.353026 30.36963,107.63376 42.000579,56.807105 Z"
     style="display:inline;opacity:1;fill:none;stroke:#000000;stroke-width:10;stroke-linecap:butt;stroke-linejoin:round;stroke-miterlimit:4;stroke-dasharray:none;stroke-opacity:1" /></svg>

<svg xmlns="http://www.w3.org/2000/svg" width="192" height="192" fill="none" stroke="#000" stroke-linejoin="round" stroke-width="10" viewBox="0 0 192 192"><path d="m127.104 109.743-5.956 51.726 45.956-41.19zm-13.923 1.279-6.536 56.973-58.962-34.81zm17.19-14.776 17.618-49.017 23.017 59.673ZM57.629 48.934l-16.623 72.602 67.771-23.017Zm10.78-7.845 49.962 48.57 19.226-53.29z"/><path stroke-width="6" d="m71.696 29.321 11.238-7.112 26.25 4.431ZM44.242 144.205l5.85 10.634 27.578 9.171z"/><path d="m21 78.353 9.37 29.28L42 56.808Z"/></svg>
